X: 1638
T: Judy Callaghan
C:Jonathan Blewitt (C>1810)
B: australian traditional tunes wiki
M:9/8
L:1/8
R: Slide
Q: 3/8=100
K:D
V:1 
"D"F2A AGA AGA|F2A ABA"Bm"d2f|"D"F2A AGA AGA|"Bm"B2B"Em"e2d "A7"cBA:|
|:"D"f2af2a fed|f2a f2a "G"g2e|"D"f2a f2a fed|"Em"g2fe2d "A7"cBA:|
|:"D"f2za2zd2z|"Em"g2f e2d "A7"cBA|"D"f2ze2zd2z|"Bm"B2A "Em"G2F "D"FED:|
% abcbook-tune_id 6342d53a14a7e8840053427f


% abcbook-boost 0
% abcbook-tablature 
% abcbook-transpose 
% abcbook-lastupdated 1665324375425
% abcbook-soundfonts 
% abcbook-repeats 1
% NFF Book 2020
% Bush Traditions recording played by Roland Clarke

